material/.icons/material/nintendo-game-boy.svg

<svg xmlns="http://www.w3.org/2000/svg" viewBox="0 0 24 24"><path d="M7 1c-1.1 0-2 .9-2 2v18a2 2 0 002 2h7c2.76 0 5-2.24 5-5V3a2 2 0 00-2-2H7m1 3h8v7H8V4m1 10h1v2h2v1h-2v2H9v-2H7v-1h2v-2m7 1c.55 0 1 .45 1 1s-.45 1-1 1-1-.45-1-1 .45-1 1-1m-2 2c.55 0 1 .45 1 1s-.45 1-1 1-1-.45-1-1 .45-1 1-1z"/></svg>

<?xml version="1.0" encoding="UTF-8"?><!DOCTYPE svg PUBLIC "-//W3C//DTD SVG 1.1//EN" "http://www.w3.org/Graphics/SVG/1.1/DTD/svg11.dtd"><svg xmlns="http://www.w3.org/2000/svg" xmlns:xlink="http://www.w3.org/1999/xlink" version="1.1" id="mdi-nintendo-game-boy" width="24" height="24" viewBox="0 0 24 24"><path d="M7 1C5.9 1 5 1.9 5 3V21C5 22.11 5.9 23 7 23H14C16.76 23 19 20.76 19 18V3C19 1.9 18.11 1 17 1H7M8 4H16V11H8V4M9 14H10V16H12V17H10V19H9V17H7V16H9V14M16 15C16.55 15 17 15.45 17 16C17 16.55 16.55 17 16 17C15.45 17 15 16.55 15 16C15 15.45 15.45 15 16 15M14 17C14.55 17 15 17.45 15 18C15 18.55 14.55 19 14 19C13.45 19 13 18.55 13 18C13 17.45 13.45 17 14 17Z" /></svg>
